svg/blobs-icons/no-decorations/sound.svg

<svg xmlns="http://www.w3.org/2000/svg" xmlns:xlink="http://www.w3.org/1999/xlink" preserveAspectRatio="xMidYMid" width="120" height="217" viewBox="0 0 120 217"><defs><style>.cls-3{fill:#fbb713}.cls-4{fill:#020403;opacity:.25}.cls-5{fill:#2476ff}</style></defs><g id="group-126svg"><path d="M44.702 153.394s-44.697.0-44.697.0.0-95.922.0-95.922 44.697.0 44.697.0.0 95.922.0 95.922z" id="path-1" class="cls-3" fill-rule="evenodd"/><path d="M5.086 57.472s-5.081.0-5.081.0.0 95.922.0 95.922 44.697.0 44.697.0.0-95.922.0-95.922-7.784 71.466-7.784 71.466C35.622 138.185 24.07 141.788 17.834 134.838 14.169 130.754 5.086 57.472 5.086 57.472z" id="path-2" class="cls-4" fill-rule="evenodd"/><path d="M46.517 57.472s-1.815.0-1.815.0.0 96.216.0 96.216 74.581 63.193 74.581 63.193.0-216.879.0-216.879-72.766 57.47-72.766 57.47z" id="path-3" class="cls-5" fill-rule="evenodd"/><path d="M103.371 12.57s0 134.728.0 134.728c0 11.447-13.398 17.656-22.133 10.255L44.702 126.597s0 27.091.0 27.091 74.581 63.193 74.581 63.193.0-216.879.0-216.879S103.371 12.57 103.371 12.57z" id="path-4" class="cls-4" fill-rule="evenodd"/></g></svg>

<svg xmlns="http://www.w3.org/2000/svg" xmlns:xlink="http://www.w3.org/1999/xlink" preserveAspectRatio="xMidYMid" width="120" height="217" viewBox="0 0 120 217">
  <defs>
    <style>

      .cls-3 {
        fill: #fbb713;
      }

      .cls-4 {
        fill: #020403;
        opacity: 0.25;
      }

      .cls-5 {
        fill: #2476ff;
      }
    </style>
  </defs>
  <g id="group-126svg">
    <path d="M44.702,153.394 C44.702,153.394 0.005,153.394 0.005,153.394 C0.005,153.394 0.005,57.472 0.005,57.472 C0.005,57.472 44.702,57.472 44.702,57.472 C44.702,57.472 44.702,153.394 44.702,153.394 Z" id="path-1" class="cls-3" fill-rule="evenodd"/>
    <path d="M5.086,57.472 C5.086,57.472 0.005,57.472 0.005,57.472 C0.005,57.472 0.005,153.394 0.005,153.394 C0.005,153.394 44.702,153.394 44.702,153.394 C44.702,153.394 44.702,57.472 44.702,57.472 C44.702,57.472 36.918,128.938 36.918,128.938 C35.622,138.185 24.070,141.788 17.834,134.838 C14.169,130.754 5.086,57.472 5.086,57.472 Z" id="path-2" class="cls-4" fill-rule="evenodd"/>
    <path d="M46.517,57.472 C46.517,57.472 44.702,57.472 44.702,57.472 C44.702,57.472 44.702,153.688 44.702,153.688 C44.702,153.688 119.283,216.881 119.283,216.881 C119.283,216.881 119.283,0.002 119.283,0.002 C119.283,0.002 46.517,57.472 46.517,57.472 Z" id="path-3" class="cls-5" fill-rule="evenodd"/>
    <path d="M103.371,12.570 C103.371,12.570 103.371,147.298 103.371,147.298 C103.371,158.745 89.973,164.954 81.238,157.553 C81.238,157.553 44.702,126.597 44.702,126.597 C44.702,126.597 44.702,153.688 44.702,153.688 C44.702,153.688 119.283,216.881 119.283,216.881 C119.283,216.881 119.283,0.002 119.283,0.002 C119.283,0.002 103.371,12.570 103.371,12.570 Z" id="path-4" class="cls-4" fill-rule="evenodd"/>
  </g>
</svg>
